src/assets/img/valley.svg

<svg xmlns="http://www.w3.org/2000/svg" xmlns:xlink="http://www.w3.org/1999/xlink" style="margin: auto; background: none; display: block; z-index: 1; position: relative; shape-rendering: auto;" width="1440" height="234" preserveAspectRatio="xMidYMid" viewBox="0 0 1440 234">
<g transform=""><linearGradient id="lg-0.41769164274007875" x1="0" x2="1" y1="0" y2="0">
  <stop stop-color="#ffffff" offset="0"/>
  <stop stop-color="#ffffff" offset="1"/>
</linearGradient><path d="M 0 0 M 0 208.047 Q 144 195.679 288 191.559 T 576 182.403 T 864 185.088 T 1152 161.237 T 1440 158.251 L 1440 85.0812 Q 1296 90.5467 1152 85.3945 T 864 61.563 T 576 44.9826 T 288 42.4616 T 0 40.2682 Z" fill="#efefef" opacity="1.0">
  <animate attributeName="d" dur="10s" repeatCount="indefinite" keyTimes="0;0.333;0.667;1" calcmod="spline" keySplines="0.2 0 0.2 1;0.2 0 0.2 1;0.2 0 0.2 1" begin="0s" values="M0 0M 0 179.91325378028142Q 144 193.41630540590245 288 189.22469882807025T 576 193.3947443584974T 864 160.80919410801252T 1152 178.29407980567478T 1440 157.89489561592134L 1440 66.77879801298971Q 1296 77.85133616262456 1152 72.45514121635516T 864 77.3617711718262T 576 39.16882775557586T 288 63.686227157089476T 0 42.29418740190445Z;M0 0M 0 179.50641375997213Q 144 192.79041566213579 288 191.32498538034224T 576 169.38254270349609T 864 165.1968342091902T 1152 156.36822177438845T 1440 138.10902217673464L 1440 85.8017423478187Q 1296 92.71894582645332 1152 82.95764233663375T 864 65.64786904741314T 576 59.615966708275096T 288 29.216318048569278T 0 53.8069351385155Z;M0 0M 0 214.1200187390953Q 144 196.2942529271545 288 191.60825920890971T 576 185.1739084766088T 864 189.32082134421356T 1152 162.27359153336675T 1440 162.53740387746365L 1440 84.9278453836602Q 1296 90.08440793540323 1152 85.91311522988025T 864 60.693707189166T 576 41.86855654104882T 288 45.280201996480955T 0 37.38712786424503Z;M0 0M 0 179.91325378028142Q 144 193.41630540590245 288 189.22469882807025T 576 193.3947443584974T 864 160.80919410801252T 1152 178.29407980567478T 1440 157.89489561592134L 1440 66.77879801298971Q 1296 77.85133616262456 1152 72.45514121635516T 864 77.3617711718262T 576 39.16882775557586T 288 63.686227157089476T 0 42.29418740190445Z"/>
</path><path d="M 0 0 M 0 190.231 Q 144 195.01 288 186.712 T 576 165.095 T 864 172.616 T 1152 155.091 T 1440 153.141 L 1440 93.4294 Q 1296 75.5222 1152 67.3837 T 864 57.1426 T 576 54.4845 T 288 37.5246 T 0 21.3476 Z" fill="#efefef" opacity="0.6">
  <animate attributeName="d" dur="10s" repeatCount="indefinite" keyTimes="0;0.333;0.667;1" calcmod="spline" keySplines="0.2 0 0.2 1;0.2 0 0.2 1;0.2 0 0.2 1" begin="-5s" values="M0 0M 0 180.32091887801343Q 144 201.31523531829092 288 193.80368295612425T 576 164.86083865843239T 864 168.75843447928452T 1152 147.87939534893275T 1440 157.2565137321023L 1440 97.02781005825881Q 1296 78.16984443795735 1152 69.41479396365484T 864 45.909337152986986T 576 54.71223701195572T 288 40.36687402149211T 0 22.315365188226522Z;M0 0M 0 210.76594893894725Q 144 181.94502683174503 288 172.0165176222863T 576 165.58053099917467T 864 180.60861320446904T 1152 170.03413009695075T 1440 144.61463668229405L 1440 85.97307081481387Q 1296 70.03596405624319 1152 63.17509338136037T 864 80.41910394950293T 576 54.01272107950547T 288 31.635213773335124T 0 19.34219162279073Z;M0 0M 0 178.1771373656529Q 144 197.57432435704848 288 192.6450685313082T 576 181.06752350137972T 864 166.52499610832547T 1152 156.73376871569565T 1440 169.25647110408846L 1440 69.35822526010165Q 1296 76.83573274754309 1152 74.61559010047829T 864 45.159756531271455T 576 49.79240032956545T 288 37.54892420358219T 0 41.009040903370334Z;M0 0M 0 180.32091887801343Q 144 201.31523531829092 288 193.80368295612425T 576 164.86083865843239T 864 168.75843447928452T 1152 147.87939534893275T 1440 157.2565137321023L 1440 97.02781005825881Q 1296 78.16984443795735 1152 69.41479396365484T 864 45.909337152986986T 576 54.71223701195572T 288 40.36687402149211T 0 22.315365188226522Z"/>
</path></g>
</svg>

<svg xmlns="http://www.w3.org/2000/svg" style="margin:auto;background:0 0;z-index:1;position:relative" width="1440" height="234" preserveAspectRatio="xMidYMid" viewBox="0 0 1440 234" display="block"><g fill="#efefef"><path d="M0 208.047q144-12.368 288-16.488t288-9.156 288 2.685 288-23.851 288-2.986v-73.17q-144 5.466-288 .313T864 61.563t-288-16.58-288-2.521T0 40.268z"><animate attributeName="d" dur="10s" repeatCount="indefinite" keyTimes="0;0.333;0.667;1" keySplines="0.2 0 0.2 1;0.2 0 0.2 1;0.2 0 0.2 1" begin="0s" values="M0 0M 0 179.91325378028142Q 144 193.41630540590245 288 189.22469882807025T 576 193.3947443584974T 864 160.80919410801252T 1152 178.29407980567478T 1440 157.89489561592134L 1440 66.77879801298971Q 1296 77.85133616262456 1152 72.45514121635516T 864 77.3617711718262T 576 39.16882775557586T 288 63.686227157089476T 0 42.29418740190445Z;M0 0M 0 179.50641375997213Q 144 192.79041566213579 288 191.32498538034224T 576 169.38254270349609T 864 165.1968342091902T 1152 156.36822177438845T 1440 138.10902217673464L 1440 85.8017423478187Q 1296 92.71894582645332 1152 82.95764233663375T 864 65.64786904741314T 576 59.615966708275096T 288 29.216318048569278T 0 53.8069351385155Z;M0 0M 0 214.1200187390953Q 144 196.2942529271545 288 191.60825920890971T 576 185.1739084766088T 864 189.32082134421356T 1152 162.27359153336675T 1440 162.53740387746365L 1440 84.9278453836602Q 1296 90.08440793540323 1152 85.91311522988025T 864 60.693707189166T 576 41.86855654104882T 288 45.280201996480955T 0 37.38712786424503Z;M0 0M 0 179.91325378028142Q 144 193.41630540590245 288 189.22469882807025T 576 193.3947443584974T 864 160.80919410801252T 1152 178.29407980567478T 1440 157.89489561592134L 1440 66.77879801298971Q 1296 77.85133616262456 1152 72.45514121635516T 864 77.3617711718262T 576 39.16882775557586T 288 63.686227157089476T 0 42.29418740190445Z"/></path><path d="M0 190.231q144 4.779 288-3.519t288-21.617 288 7.521 288-17.525 288-1.95V93.429q-144-17.907-288-26.045T864 57.143t-288-2.659-288-16.96T0 21.349z" opacity=".6"><animate attributeName="d" dur="10s" repeatCount="indefinite" keyTimes="0;0.333;0.667;1" keySplines="0.2 0 0.2 1;0.2 0 0.2 1;0.2 0 0.2 1" begin="-5s" values="M0 0M 0 180.32091887801343Q 144 201.31523531829092 288 193.80368295612425T 576 164.86083865843239T 864 168.75843447928452T 1152 147.87939534893275T 1440 157.2565137321023L 1440 97.02781005825881Q 1296 78.16984443795735 1152 69.41479396365484T 864 45.909337152986986T 576 54.71223701195572T 288 40.36687402149211T 0 22.315365188226522Z;M0 0M 0 210.76594893894725Q 144 181.94502683174503 288 172.0165176222863T 576 165.58053099917467T 864 180.60861320446904T 1152 170.03413009695075T 1440 144.61463668229405L 1440 85.97307081481387Q 1296 70.03596405624319 1152 63.17509338136037T 864 80.41910394950293T 576 54.01272107950547T 288 31.635213773335124T 0 19.34219162279073Z;M0 0M 0 178.1771373656529Q 144 197.57432435704848 288 192.6450685313082T 576 181.06752350137972T 864 166.52499610832547T 1152 156.73376871569565T 1440 169.25647110408846L 1440 69.35822526010165Q 1296 76.83573274754309 1152 74.61559010047829T 864 45.159756531271455T 576 49.79240032956545T 288 37.54892420358219T 0 41.009040903370334Z;M0 0M 0 180.32091887801343Q 144 201.31523531829092 288 193.80368295612425T 576 164.86083865843239T 864 168.75843447928452T 1152 147.87939534893275T 1440 157.2565137321023L 1440 97.02781005825881Q 1296 78.16984443795735 1152 69.41479396365484T 864 45.909337152986986T 576 54.71223701195572T 288 40.36687402149211T 0 22.315365188226522Z"/></path></g></svg>
